X: 42408
T: West Clare Railway, The
R: reel
M: 4/4
K: Dmajor
FABc d2 Bc|d2 de dB{d}BA|FABc d2 de|(3faf ef dB{d}BA|
FABc d2 Bc|d2 de dB{d}BA|FABc d2 de|(3faf ef dBBa||
bafe d3a|bafe dBBa|bafe d3f|a3b (3aba fa|
bafe d3a|bafe dBBa|fb b/b/b afef|defe dABA||

